source/img/icon-feature-money.svg

<svg enable-background="new 46.212 56.834 46.575 27.332" height="27.332" viewBox="46.212 56.834 46.575 27.332" width="46.575" xmlns="http://www.w3.org/2000/svg"><g fill="#63d1bb"><path d="m88.882 56.834h-38.766c-2.156 0-3.904 1.749-3.904 3.905v19.521c0 2.156 1.748 3.905 3.904 3.905h38.766c2.156 0 3.905-1.749 3.905-3.905v-19.521c0-2.156-1.749-3.905-3.905-3.905zm-39.647 24.95v-22.233h40.202v22.233z"/><path d="m53.14 77.88h32.395v-14.424h-32.395zm16.36-12.526c2.936 0 5.315 2.38 5.315 5.314 0 2.936-2.379 5.314-5.315 5.314s-5.314-2.379-5.314-5.314c-.001-2.935 2.378-5.314 5.314-5.314z"/></g></svg>

<svg version="1.1" id="Money" xmlns="http://www.w3.org/2000/svg" xmlns:xlink="http://www.w3.org/1999/xlink" x="0px" y="0px" width="46.575px" height="27.332px" viewBox="46.212 56.834 46.575 27.332" enable-background="new 46.212 56.834 46.575 27.332" xml:space="preserve">
  <path fill="#63d1bb" d="M88.882,56.834H50.116c-2.156,0-3.904,1.749-3.904,3.905v19.521c0,2.156,1.748,3.905,3.904,3.905h38.766 c2.156,0,3.905-1.749,3.905-3.905V60.739C92.787,58.583,91.038,56.834,88.882,56.834z M49.235,81.784V59.551h40.202v22.233H49.235z" />
  <path fill="#63d1bb" d="M53.14,77.88h32.395V63.456H53.14V77.88z M69.5,65.354c2.936,0,5.315,2.38,5.315,5.314c0,2.936-2.379,5.314-5.315,5.314 s-5.314-2.379-5.314-5.314C64.185,67.733,66.564,65.354,69.5,65.354z"/>
</svg>
